pro/src/icons/full-parameters.svg

<svg width="48" height="48" viewBox="0 0 48 48" fill="none" xmlns="http://www.w3.org/2000/svg">
<path id="icon" fill="currentColor" fill-rule="evenodd" clip-rule="evenodd" d="M40.2288 20.1188C38.8004 20.9175 37.9295 22.3912 37.9295 23.9775V24H37.9411C37.9411 25.5975 38.8237 27.06 40.2404 27.8587L41.4133 28.5225C41.9707 28.8375 42.1681 29.5237 41.843 30.0637L38.3591 35.9137C38.034 36.4538 37.3256 36.645 36.7682 36.33L35.5721 35.655C34.1553 34.8675 32.425 34.8675 31.0083 35.655L30.9386 35.7C29.5219 36.4875 28.6509 37.95 28.6509 39.525V40.875C28.6509 41.4938 28.1283 42 27.4896 42H20.522C19.8833 42 19.3607 41.4938 19.3607 40.875V39.5475C19.3607 37.9725 18.4898 36.51 17.073 35.7225L17.0149 35.6887C15.5866 34.89 13.833 34.89 12.4163 35.6887L11.2318 36.3525C10.6744 36.6562 9.96601 36.4763 9.64085 35.9363L6.15703 30.0863C5.84349 29.5462 6.02929 28.86 6.5867 28.545L7.75959 27.8925C9.18795 27.0937 10.0589 25.62 10.0589 24.0338V24.0112V23.9888C10.0589 22.3913 9.17634 20.9288 7.75959 20.13L6.5867 19.4663C6.02929 19.1512 5.83187 18.465 6.15703 17.925L9.64085 12.075C9.96601 11.535 10.6744 11.355 11.2318 11.67L12.4163 12.3338C13.8447 13.1213 15.5982 13.1325 17.0149 12.3338L17.0614 12.3C18.4781 11.5125 19.3491 10.05 19.3491 8.475V7.125C19.3491 6.50625 19.8717 6 20.5104 6H27.478C28.1167 6 28.6393 6.50625 28.6393 7.125V8.475C28.6393 10.05 29.5102 11.5125 30.927 12.3L30.9734 12.3113C32.4018 13.11 34.1553 13.11 35.5721 12.3113L36.7566 11.6475C37.314 11.3438 38.0224 11.5237 38.3475 12.0637L41.8314 17.9137C42.1449 18.4538 41.9591 19.14 41.4017 19.455L40.2288 20.1188ZM32.1224 24C32.1224 28.3492 28.483 31.875 23.9935 31.875C19.504 31.875 15.8646 28.3492 15.8646 24C15.8646 19.6508 19.504 16.125 23.9935 16.125C28.483 16.125 32.1224 19.6508 32.1224 24Z" />
</svg>

<svg xmlns="http://www.w3.org/2000/svg" width="48" height="48" fill="none"><path id="icon" fill="currentColor" fill-rule="evenodd" d="M40.229 20.119c-1.429.799-2.3 2.272-2.3 3.858V24h.012c0 1.598.883 3.06 2.3 3.859l1.172.663c.558.316.755 1.002.43 1.542l-3.484 5.85a1.183 1.183 0 0 1-1.59.416l-1.197-.675a4.7 4.7 0 0 0-4.564 0l-.07.045c-1.416.787-2.287 2.25-2.287 3.825v1.35c0 .619-.523 1.125-1.161 1.125h-6.968c-.639 0-1.161-.506-1.161-1.125v-1.328c0-1.575-.871-3.037-2.288-3.825l-.058-.033a4.71 4.71 0 0 0-4.599 0l-1.184.663a1.194 1.194 0 0 1-1.591-.416l-3.484-5.85a1.117 1.117 0 0 1 .43-1.541l1.173-.653c1.428-.798 2.299-2.272 2.299-3.858v-.045c0-1.598-.883-3.06-2.3-3.859l-1.172-.664c-.558-.315-.755-1.001-.43-1.541l3.484-5.85a1.18 1.18 0 0 1 1.59-.405l1.185.664c1.429.787 3.182.799 4.599 0l.046-.034c1.417-.788 2.288-2.25 2.288-3.825v-1.35c0-.619.523-1.125 1.161-1.125h6.968c.639 0 1.161.506 1.161 1.125v1.35c0 1.575.871 3.037 2.288 3.825l.046.011a4.71 4.71 0 0 0 4.6 0l1.184-.663c.557-.304 1.265-.124 1.59.416l3.484 5.85c.314.54.128 1.226-.43 1.541zM32.122 24c0 4.35-3.639 7.875-8.128 7.875s-8.13-3.526-8.13-7.875 3.64-7.875 8.13-7.875c4.489 0 8.128 3.526 8.128 7.875" clip-rule="evenodd"/></svg>
